svg/uf00c3-the_chosen.svg

<svg height="960" style="" width="910" xmlns="http://www.w3.org/2000/svg"><path d="m145.77936-59.998906a25.693185 25.693185 0 00-25.45439 25.692322v609.105694c0 95.24198 62.45929 114.51446 111.18775 114.51446h151.28142a19.269888 19.269888 0 010 38.53633h-164.571c-55.37324 0-97.89817-38.3157-97.89817-38.3157v151.7227h177.63565v108.086l157.03938-64.23298 157.03939 64.23298v-108.086h177.63564v-151.7227s-42.52493 38.3157-97.89817 38.3157h-164.571a19.269888 19.269888 0 010-38.53633h151.28142c48.72846 0 111.18775-19.27248 111.18775-114.51446v-609.105694a25.693185 25.693185 0 00-51.38465 0v369.893274c0 132.89579-128.46679 265.79158-283.29038 265.79158-155.26657 0-283.29039-132.89579-283.29039-265.79158v-369.893274a25.693185 25.693185 0 00-25.93025-25.692322zm309.22064 1.107461a248.29363 248.29363 0 00-248.29276 248.292775 248.29363 248.29363 0 00248.29276 248.29276 248.29363 248.29363 0 00248.29276-248.29276 248.29363 248.29363 0 00-248.29276-248.292775zm-334.23378 937.135925v141.75552h141.75551v-141.75552zm526.71205 0v141.75552h141.75549v-141.75552z" style="stroke-width:2.21493"/></svg>

<svg xmlns="http://www.w3.org/2000/svg" width="910" height="960">
    <path d="M145.78-59.999a25.693 25.693 0 0 0-25.455 25.692V574.8c0 95.242 62.46 114.515 111.188 114.515h151.281a19.27 19.27 0 0 1 0 38.536h-164.57c-55.374 0-97.899-38.316-97.899-38.316v151.723h177.636v108.086L455 885.11l157.04 64.233V841.257h177.635V689.534s-42.525 38.316-97.898 38.316H527.206a19.27 19.27 0 0 1 0-38.536h151.281c48.729 0 111.188-19.273 111.188-114.515V-34.307a25.693 25.693 0 0 0-51.385 0v369.894c0 132.895-128.466 265.791-283.29 265.791-155.267 0-283.29-132.896-283.29-265.791V-34.307a25.693 25.693 0 0 0-25.93-25.692M455-58.89A248.294 248.294 0 0 0 206.707 189.4 248.294 248.294 0 0 0 455 437.694a248.294 248.294 0 0 0 248.293-248.293A248.294 248.294 0 0 0 455-58.89M120.766 878.244V1020h141.756V878.244zm526.712 0V1020h141.756V878.244z" style="stroke-width:2.21493"/>
</svg>
